actions/16/plugins.svg

<svg xmlns="http://www.w3.org/2000/svg" viewBox="0 0 16 16">
  <defs id="defs3051">
    <style type="text/css" id="current-color-scheme">
      .ColorScheme-Text {
        color:#eff0f1;
      }
      </style>
  </defs>
 <path 
     style="fill:currentColor;fill-opacity:1;stroke:none" 
     d="m4 3v1h-2v9h12v-9h-2v-1h-3v1h-2v-1zm-1 2h10v7h-10z"
     class="ColorScheme-Text"/>
</svg>

<svg xmlns="http://www.w3.org/2000/svg" viewBox="0 0 16 16">
  <defs id="defs3051">
    <style type="text/css" id="current-color-scheme">.ColorScheme-Text {color:#fcfcfc;}</style>
  </defs>
 <path 
     style="fill:currentColor;fill-opacity:1;stroke:none" 
     d="M 4,3 V 4 H 2 v 7 c 0,0 0,2 2,2 2,0 6,0 8,0 2,0 2,-2 2,-2 V 4 H 12 V 3 H 9 V 4 H 7 V 3 Z M 3,5 h 10 v 6 c 0,0 0,1 -1,1 -1,0 -7,0 -8,0 -1,0 -1,-1 -1,-1 z"
     class="ColorScheme-Text"/>
</svg>
